X:1
T:Title
%%score { ( 1 3 ) | ( 2 4 ) }
L:1/8
Q:1/4=100
M:4/4
K:D
V:1 treble nm="Grand Piano"
V:3 treble 
V:2 bass 
V:4 bass 
V:1
 F2 E2 DEF[GB] | [FA]2 [DF]2 [CE]4 | [EG]2 [DF]2 [CE][DF][CEG][EGc] | [EGB]2 [CEG]2 [DF]4 | %4
w: D.~B.~Towner * * * * *||||
 [DFA]2 [B,EG]2 [A,DF][B,EG][DFA][Fd] | c2 B2 B4 | [Gc]2 [Fd]2 [Fd][FA][FA][A,DF] | %7
w: |||
 [A,DF]2[K:bass] [G,CE]2 [F,D]4 | z4 z [GB]3 | G2 c2 z [FA]3 | ^GGGA [GB][Gd][Ac][DEB] | A8 | %12
w: |||||
 F2 E2 DEFB | A2 F2 [CE]4 | DDDD [CE]2 [CA]2 | A6 z2 | DEFA D2 [CE]2 | D6 z2 |] %18
w: ||||||
V:2
 [D,A,D]2 [D,G,D]2 [D,F,][D,G,D][D,A,D][D,D] | [D,D]2 [D,A,]2 [A,,A,]4 | %2
 [A,,A,]2 [A,,A,]2 [A,,A,][A,,A,]A,,A,, | A,,2 A,,2 D,4 | D,2 D,2 D,D,D,[D,A,] | %5
 [G,B,G]2 [G,DG]2 [G,DG]4 | [E,A,]2 [D,A,]2 [D,A,][D,D][D,D]D, | A,,2 A,,2 D,4 | D,2 D,2 G,G,G,G, | %9
 .[A,CE]2 .[A,E]2 [D,D][D,D]D,D, | [E,DE][E,DE][E,DE][E,CE] [E,B,][E,B,][E,A,]E, | z2 D2 E4 | %12
 [D,D]2 [G,B,D]2 [F,A,][E,A,C][D,A,D][D,G,D] | [D,F,D]2 [D,A,D]2 [A,,A,]4 | %14
 [D,F,][D,F,][E,G,][F,A,] [A,,G,]2 [A,,E,]2 | [D,F,D]6 z2 | %16
 [D,G,][D,G,D][D,A,D][D,F,D] [A,,F,]2 [A,,G,]2 | [D,F,]6 z2 |] %18
V:3
 x8 | x8 | x8 | x8 | x8 | x8 | x8 | x2[K:bass] x6 | [DFA]2 [DFd]2 [DAc]DDD | z B, z G .[GB]2 DD | %10
 x8 | [CE]2 F2 G4 | x8 | x8 | x8 | x8 | x8 | x8 |] %18
V:4
 x8 | x8 | x8 | x8 | x8 | x8 | x8 | x8 | x8 | x8 | x8 | A,,8 | x8 | x8 | x8 | x8 | x8 | x8 |] %18

